X: 2
T: Time's a Tell Tale
%R: jig
B: Cahusac "Annual Collection of Twenty-four favorite Country Dances For the Year 1809", p.1 #2
F: http://imslp.org/wiki/24_Country_Dances_for_the_Year_1809_%28Various%29
F: http://javanese.imslp.info/files/imglnks/usimg/0/0d/IMSLP351863-PMLP71785-wm_cahusac_24_dances_1809.pdf
Z: 2015 by John Chambers  <jc:trillian.mit.edu>
M: 6/8
L: 1/8
K: D
% - - - - - - - - - - - - - - - - - - - - - - - - - - - - -
A |\
d2d dcd | a2a age | d2d dcd | e2c ABc |\
d2d dcd | a3 age | d3 {f}ede | d3- d2 :|
|: F/G/ |\
A2A Adc | B2B BGF | E2E EAG | G3 F2F/G/ |\
A2A Adc | B2b bge | c2a ABc | d3- d2 :|
% - - - - - - - - - - Dance description - - - - - - - - - -
%%begintext align
%% Set & hands 3 round, back again, Down the
%% mid: up again, and Allemande.
%%endtext

%%sep 1 1 500
%%sep 1 1 500
